X:2915
T:Se, Syver st\aar og sager ved
C:anon.
O:Norway
Z:Transcribed by Frank Nordberg - http://www.musicaviva.com
F:http://abc.musicaviva.com/tunes/norway/se-syver-staar-og-sager/se-syver-staar-og-sager-1.abc
M:6/8
L:1/8
K:G
D|"G"G2GG2A|"G"B2BB2G|"C"A2Ac2B|"D7"A3"G"G2 S :|
w:Se, sy-ver st\aar og sa-ger ved, han sa-ger sto-re kub-ber.
w:Han sa-ger gran og bj\or-ke-ved og rot og ty-ri-stub-ber.
G|"D"A2AD2c|"G"B2AB2SG|"D"A2AD2c|"G"B2AB2SG|
w:Han sa-ger fint, han sa-ger fort, s\aa kvi-ler han n\aar det er gjort, og
"G"G3D zB|"G"B3G z |:B/d/|"G"G2B/d/G2B/d/|"D7"DDD "G"G z:|
w:dan-ser, og dan-ser. Tra-la-la, tra-la-la, tra-la-la-la-la-la.
W:
W:Se, syver st\aar og sager ved,
W:han sager store kubber.
W:Han sager gran og bj\orkeved
W:og rot og tyristubber.
W:Han sager fint, han sager fort,
W:s\aa kviler han n\aar det er gjort,
W:  og danser, og danser
W:  Tralala, tralala, tralalalalala.
W:
W:Han hogger ved, la \oksa g\aa,
W:han hogger s\aa det gyver.
W:Han hogger veden pen og sm\aa,
W:ja, det gj\or gamle syver.
W:Han hogger fint, han sager fort,
W:s\aa kviler han n\aar det er gjort,
W:  og danser, og danser
W:  Tralala, tralala, tralalalalala.
W:
W:
W:  From Musica Viva - http://www.musicaviva.com
W:  the Internet center for free sheet music downloads.

